X:23
T:Polonäs efter Pehr Andersson Bild 08 nr 23
S:efter Pehr Andersson
B:Spelmansbok Ma 1 efter Pehr Andersson daterad 1731
B:FMK - katalog Ma1 bild 8
O:Måstorp, Närke
R:Slängpolska
Z:Nils L
M:3/4
L:1/8
K:G
g2 gb ag | fe de fd | g2 gb ag | fe d2 d2 ::
((3Bcd) e2 d2 | "^?"c2 BA BG | ((3Bcd) e2 d2 | "^?"c2 BA BG |
dd ed cB | ((3AGF) G2 G,2 :|

